X:119
T:Korn Likker
M:2/4
L:1/8
K:D
a/g/|f/a/d de/f/|ge e>d|cc c/A/B/c/|d/c/d/e/ f/g/a/g/|f/a/d de/f/|ge e2|
Ac/e/ g/e/c/e/|edd::d/f/|a>b af|gg/f/ eA/e/|g>a ge|
ff/e/ dd/f/|a>b af|gg/f/ e2|Ac/e/ g/e/c/e/|edd:|
